assets/icons/book.svg

<svg version="1.2" xmlns="http://www.w3.org/2000/svg" viewBox="0 0 448 512" width="448" height="512"><style>.a{fill:#005ef5}</style><path fill-rule="evenodd" class="a" d="m0 96c0-53 43-96 96-96h96v190.7c0 13.4 15.5 20.9 26 12.5l54-43.2 54 43.2c10.5 8.4 26 0.9 26-12.5v-190.7h64c17.7 0 32 14.3 32 32v320c0 17.7-14.3 32-32 32v64c17.7 0 32 14.3 32 32 0 17.7-14.3 32-32 32h-320c-53 0-96-43-96-96zm64 320c0 17.7 14.3 32 32 32h256v-64h-256c-17.7 0-32 14.3-32 32z"/></svg>

<svg xmlns="http://www.w3.org/2000/svg" viewBox="0 0 448 512"><!--!Font Awesome Free 6.5.1 by @fontawesome - https://fontawesome.com License - https://fontawesome.com/license/free Copyright 2024 Fonticons, Inc.--><path d="M0 96C0 43 43 0 96 0h96V190.7c0 13.4 15.5 20.9 26 12.5L272 160l54 43.2c10.5 8.4 26 .9 26-12.5V0h32 32c17.7 0 32 14.3 32 32V352c0 17.7-14.3 32-32 32v64c17.7 0 32 14.3 32 32s-14.3 32-32 32H384 96c-53 0-96-43-96-96V96zM64 416c0 17.7 14.3 32 32 32H352V384H96c-17.7 0-32 14.3-32 32z" fill="#00c5f7"/></svg>
